icon-themes/colibre_svg/cmd/sc_showallnotes.svg

<svg viewBox="0 0 16 16" xmlns="http://www.w3.org/2000/svg"><path d="m4 1.000281v2 5h2 .5c.2761309.000028.4999724.223869.5.5v2.886719l3.667969-3.259766c.091392-.081553.209541-.12673.332031-.126953h4v-7z" fill="#fff" fill-rule="evenodd"/><path d="m.5 3c-.27614237 0-.5.2238576-.5.5.00000895.02947.0026233.058881.0078125.087891h-.0078125v2.412109 5.5c.00002761.276131.22386906.499972.5.5h2.5v3.5c.0007774.430893.5097988.659116.8320312.373047l4.3574219-3.873047h4.3105469c.276131-.000028.499972-.223869.5-.5v-8c-.000028-.2761309-.223869-.4999724-.5-.5zm.5 1h11v7h-4c-.1224905.000223-.2406387.0454-.3320312.126953l-3.6679688 3.259766v-2.886719c-.0000276-.276131-.2238691-.499972-.5-.5h-2.5v-5z" fill="#eac282"/><path d="m3.5-.00011884c-.2761424 0-.5.2238576-.5.5.000009.02947.00262.058881.00781.087891h-.00781v2.41210904 5.5c.0000276.276131.2238691.499972.5.5h2.5v3.4999998c.0007774.430893.5097988.659116.8320312.373047l4.3574218-3.8730468h4.310547c.276131-.000028.499972-.223869.5-.5v-8.00000004c-.000028-.2761309-.223869-.4999724-.5-.5zm.5 1h11v7.00000004h-4c-.12249.000223-.240639.0454-.332031.126953l-3.667969 3.2597658v-2.8867188c-.0000276-.276131-.2238691-.499972-.5-.5h-2.5v-5z" fill="#eac282"/><path d="m1 4v2 5h2 .5c.2761309.000028.4999724.223869.5.5v2.886719l3.6679688-3.259766c.0913925-.081553.2095407-.12673.3320312-.126953h4v-7z" fill="#fff" fill-rule="evenodd"/></svg>

<svg viewBox="0 0 16 16" xmlns="http://www.w3.org/2000/svg">
  <path
     style="fill:#ffffff;fill-rule:evenodd;stroke:none;stroke-width:1px"
     d="m 4,1.000281 v 2 5 h 2 0.5 c 0.2761309,2.8e-5 0.4999724,0.223869 0.5,0.5 V 11.387 L 10.667969,8.127234 C 10.759361,8.045681 10.87751,8.000504 11,8.000281 h 4 v -7 z"
     />
  <path
     style="fill:#eac282"
     d="M 0.5,3 C 0.22385763,3 0,3.2238576 0,3.5 8.9536908e-6,3.52947 0.0026233,3.558881 0.0078125,3.587891 H 0 V 6 11.5 c 2.7608953e-5,0.276131 0.22386906,0.499972 0.5,0.5 H 3 v 3.5 c 7.774e-4,0.430893 0.5097988,0.659116 0.8320312,0.373047 L 8.1894531,12 H 12.5 c 0.276131,-2.8e-5 0.499972,-0.223869 0.5,-0.5 v -8 C 12.999972,3.2238691 12.776131,3.0000276 12.5,3 Z M 1,4 h 11 v 7 H 8 c -0.1224905,2.23e-4 -0.2406387,0.0454 -0.3320312,0.126953 L 4,14.386719 V 11.5 C 3.9999724,11.223869 3.7761309,11.000028 3.5,11 H 1 V 6 Z"
     />
  <path
     style="fill:#eac282"
     d="m 3.5,-1.1884039e-4 c -0.2761424,0 -0.5,0.22385760039 -0.5,0.50000000039 9e-6,0.02947 0.00262,0.058881 0.00781,0.087891 H 3 v 2.41210904 5.5 c 2.76e-5,0.276131 0.2238691,0.499972 0.5,0.5 H 6 v 3.4999998 c 7.774e-4,0.430893 0.5097988,0.659116 0.8320312,0.373047 L 11.189453,8.9998812 H 15.5 c 0.276131,-2.8e-5 0.499972,-0.223869 0.5,-0.5 V 0.49988116 C 15.999972,0.22375026 15.776131,-9.1240387e-5 15.5,-1.1884039e-4 Z M 4,0.99988116 H 15 V 7.9998812 h -4 c -0.12249,2.23e-4 -0.240639,0.0454 -0.332031,0.126953 L 7,11.3866 V 8.4998812 c -2.76e-5,-0.276131 -0.2238691,-0.499972 -0.5,-0.5 H 4 v -5 z"
     />
  <path
     style="fill:#ffffff;fill-rule:evenodd;stroke:none;stroke-width:1px"
     d="M 1 4 L 1 6 L 1 11 L 3 11 L 3.5 11 C 3.7761309 11.000028 3.9999724 11.223869 4 11.5 L 4 14.386719 L 7.6679688 11.126953 C 7.7593613 11.0454 7.8775095 11.000223 8 11 L 12 11 L 12 4 L 1 4 z "
     />
</svg>
